public/assets/cta-decor-top.svg

<svg width="88" height="144" viewBox="0 0 88 144" fill="none" xmlns="http://www.w3.org/2000/svg">
<path d="M75.252 119.186C76.6051 118.061 77.4528 116.441 77.6087 114.682C77.7646 112.924 77.216 111.171 76.0835 109.809C74.951 108.447 73.3274 107.588 71.5699 107.42C69.8123 107.253 68.0649 107.791 66.7119 108.916L40.5843 130.642C38.1572 128.6 35.9146 126.347 33.8829 123.911C32.1275 121.716 30.6029 119.347 29.3333 116.841L55.328 95.2256C56.5902 94.072 57.3568 92.4729 57.4685 90.7607C57.5803 89.0485 57.0286 87.3547 55.9281 86.0313C54.8276 84.7079 53.2629 83.8565 51.559 83.654C49.8551 83.4516 48.1431 83.9136 46.7786 84.9442L23.7828 104.066C21.7328 98.5169 19.7811 92.3206 17.9322 85.7751L35.3948 71.2542C36.7478 70.1291 37.5955 68.5091 37.7514 66.7505C37.9074 64.9919 37.3587 63.2388 36.2262 61.8769C35.0937 60.5149 33.4701 59.6557 31.7126 59.4883C29.9551 59.3208 28.2076 59.8588 26.8546 60.9839L14.2058 71.5019C12.5751 65.0387 11.1435 58.4099 9.79555 51.9942L15.4615 47.2827C16.8145 46.1576 17.6622 44.5376 17.8182 42.779C17.9741 41.0204 17.4255 39.2673 16.293 37.9054C15.1605 36.5435 13.5369 35.6843 11.7793 35.5168C10.0218 35.3493 8.27433 35.8873 6.92131 37.0124L6.81064 37.1044C2.9324 16.6833 0.668121 0.949421 0.668121 0.949421C0.668121 0.949421 15.7361 6.03652 35.0961 13.5839L34.9854 13.6759C33.6324 14.801 32.7847 16.4211 32.6288 18.1797C32.4728 19.9382 33.0215 21.6913 34.154 23.0533C35.2865 24.4152 36.9101 25.2744 38.6676 25.4419C40.4251 25.6093 42.1726 25.0713 43.5256 23.9462L49.2026 19.2256C55.2648 21.7212 61.477 24.3747 67.5675 27.1294L54.9187 37.6474C53.5657 38.7725 52.7179 40.3925 52.562 42.1511C52.4061 43.9097 52.9547 45.6628 54.0872 47.0247C55.2197 48.3866 56.8433 49.2459 58.6008 49.4133C60.3584 49.5808 62.1059 49.0428 63.4589 47.9177L80.9326 33.3876C87.0217 36.3884 92.7673 39.4487 97.8495 42.4766L74.8427 61.6077C73.5805 62.7614 72.8139 64.3604 72.7022 66.0726C72.5904 67.7848 73.1421 69.4787 74.2426 70.8021C75.3431 72.1255 76.9078 72.9769 78.6117 73.1793C80.3155 73.3818 82.0276 72.9197 83.3921 71.8892L109.398 50.2643C111.626 51.9752 113.676 53.9059 115.519 56.0271C117.544 58.4692 119.35 61.0851 120.915 63.8439L94.776 85.5792C93.4229 86.7043 92.5752 88.3243 92.4193 90.0829C92.2633 91.8415 92.812 93.5946 93.9445 94.9565C95.077 96.3184 96.7006 97.1776 98.4581 97.3451C100.216 97.5126 101.963 96.9746 103.316 95.8495L126.201 76.8196C128.751 86.6083 128.476 96.9031 125.406 106.505C122.337 116.106 116.6 124.619 108.863 131.052C101.127 137.485 91.7105 141.573 81.7101 142.84C71.7097 144.106 61.5373 142.5 52.378 138.207L75.252 119.186Z" fill="#AECC53"/>
</svg>

<svg xmlns="http://www.w3.org/2000/svg" width="88" height="144" fill="none" viewBox="0 0 88 144"><path fill="#aecc53" d="M75.252 119.186a6.6 6.6 0 0 0 2.357-4.504 6.7 6.7 0 0 0-1.525-4.873 6.7 6.7 0 0 0-4.514-2.389 6.62 6.62 0 0 0-4.858 1.496l-26.128 21.726a54 54 0 0 1-6.701-6.731 41 41 0 0 1-4.55-7.07l25.995-21.615a6.63 6.63 0 0 0 2.14-4.465 6.72 6.72 0 0 0-1.54-4.73 6.72 6.72 0 0 0-4.369-2.377 6.63 6.63 0 0 0-4.78 1.29l-22.996 19.122c-2.05-5.55-4.002-11.745-5.85-18.29l17.462-14.522a6.6 6.6 0 0 0 2.356-4.504 6.7 6.7 0 0 0-1.525-4.873 6.7 6.7 0 0 0-4.513-2.389 6.6 6.6 0 0 0-4.858 1.496l-12.65 10.518c-1.63-6.463-3.062-13.092-4.41-19.508l5.666-4.711a6.6 6.6 0 0 0 2.357-4.504 6.7 6.7 0 0 0-1.525-4.874 6.7 6.7 0 0 0-4.514-2.388 6.6 6.6 0 0 0-4.858 1.495l-.11.092C2.932 16.684.668.95.668.95s15.068 5.088 34.428 12.635l-.11.092a6.6 6.6 0 0 0-2.357 4.504 6.7 6.7 0 0 0 1.525 4.873 6.7 6.7 0 0 0 4.514 2.389 6.6 6.6 0 0 0 4.858-1.496l5.677-4.72a588 588 0 0 1 18.364 7.903L54.92 37.647a6.6 6.6 0 0 0-2.357 4.504 6.7 6.7 0 0 0 1.525 4.874 6.7 6.7 0 0 0 4.514 2.388 6.6 6.6 0 0 0 4.858-1.495l17.474-14.53c6.089 3 11.834 6.06 16.917 9.089l-23.007 19.13a6.63 6.63 0 0 0-2.14 4.466 6.72 6.72 0 0 0 1.54 4.73 6.72 6.72 0 0 0 4.369 2.376 6.63 6.63 0 0 0 4.78-1.29l26.006-21.625a42 42 0 0 1 6.121 5.763 54 54 0 0 1 5.396 7.817l-26.14 21.735a6.6 6.6 0 0 0-2.357 4.504 6.7 6.7 0 0 0 1.526 4.874 6.7 6.7 0 0 0 4.513 2.388 6.6 6.6 0 0 0 4.858-1.495l22.885-19.03a53.33 53.33 0 0 1-.795 29.685 52.83 52.83 0 0 1-16.543 24.547A52.84 52.84 0 0 1 81.71 142.84a53.34 53.34 0 0 1-29.332-4.633z"/></svg>
